X:1
T:Title
%%score [ 1 2 3 4 ]
L:1/8
Q:1/4=180
M:4/2
K:F
V:1 treble nm="Discantus"
V:2 treble nm="Altus"
V:3 bass nm="Tenor"
V:4 bass nm="Bassus"
V:1
"^Ein feste Burg ist unser Gott" F4 | A8 A6 B2 | c4 A4 B4 c4 | %3
w: Ein|fe- ste *|Burg * ist *|
w: Mit~|uns- rer~ *|Macht~ * ist~ *|
w: Und~|wenn~ die~ *|Welt~ * voll~ *|
w: Das~|Wort~ sie~ *|sol- * len~ *|
"^Johann(es) Walt(h)er d. Ä.\n(1496-1570)" d4 c8 =B4 | c4 A4 c4 d4 | G6 A2 B2 c2 d2 B2 | %6
w: un\_- * ser|Gott, ein gu- te~|Wehr\_~ * * * * *|
w: nichts~ * ge-|tan,~ wir~ sind~ gar~|bald~ * * * * *|
w: Teu- * fel~|wär~ und~ wollt~ uns~|gar~ * * * * *|
w: las- * sen~|stahn~ und~ kein'~ Dank~|da- * * * * *|
 c2 B2 A2 G2 F4 B2 A2 | G2 F2 F8 E4 | F8 z4 F4 | A8 A6 B2 | c4 A4 B4 c4 | d4 c8 =B4 | c4 A4 c4 d4 | %13
w: * * * * und~ Waf\_~ \-||fen~ Er~|hilft uns *|frei * aus *|al\_- * ler|Not, die uns jetzt~|
w: * * * * ver- lo- *||ren;~ es~|streit'~ für~ *|uns~ * der~ *|rech- * te~|Mann,~ den~ Gott~ hat~|
w: * * * * ver- schlin- *||gen,~ so~|fürch- ten~ *|wir~ * uns~ *|nicht~ * so~|sehr,~ es~ soll~ uns~|
w: * * * * zu~ ha- *||ben;~ er~|ist~ bei~ *|uns~ * wohl~ *|auf~ * dem~|Plan~ mit~ sei- nem~|
 G6 A2 B2 c2 d2 B2 | c2 B2 A2 G2 F4 B2 A2 | G2 F2 F8 E4 | F8 z4 A4 | c12 B4- | B4 A4 B4 B4 | %19
w: hat\_~ * * * * *|* * * * be\-~ trof\_ \-~||fen~ Der|alt *|* * bö- se|
w: selbst~ * * * * *|* * * * er- ko- *||ren.~ Fragst~|du,~ *|* * wer~ der~|
w: doch~ * * * * *|* * * * ge- lin- *||gen.~ Der~|Fürst~ *|* * die- ser~|
w: Geist~ * * * * *|* * * * und~ Ga- *||ben.~ Neh-|men~ *|* * sie~ den~|
 G4 c6 B2 A4 |[M:8/4] G4 c8 =B4 | c8 z4 c4 | A4 F4 c6 B2 | A2 G2 d6 c2 c4- | c4 =B4 c4 e4 | %25
w: Feind, mit\_~ * *|Ernst ers jetzt|meint; groß|Macht * und *|* * * * viel~|* * List sein|
w: ist?~ Er~ * *|heißt~ Je- sus~|Christ,~ der~|Herr~ * Ze- *|* * * * ba\-~|* * oth,~ und~|
w: Welt,~ wie~ * *|sau'r~ er~ sich~|stellt,~ tut~|er~ * uns~ *|* * * * doch~|* * nicht;~ das~|
w: Leib,~ Gut,~ * *|Ehr,~ Kind~ und~|Weib:~ lass~|fah- * ren~ *|* * * * da-|* * hin,~ sie~|
 f6 e2 d4 B4 | c2 B2 A2 G2 F4 G4 | A4 c4 d4 d4 | G4 c8 =B4 | c4 G2 A2 B4 G4- | G2 F2 F8 E4 | F16 |] %32
w: grau- * sam *|Rü- * * * * stung|ist; auf Erd ist~|nicht~ seins~ *|Glei- * * * *||chen.~|
w: ist~ * kein~ *|and- * * * * rer~|Gott,~ das~ Feld~ muss~|er~ be- *|hal\-~ * * * *||ten.~|
w: macht,~ * er~ *|ist~ * * * * ge-|richt':~ ein~ Wört- lein~|kann~ ihn~ *|fäl\-~ * * * *||len.~|
w: ha- * ben's~ *|kein'~ * * * * Ge-|winn,~ das~ Reich~ muss~|uns~ doch~ *|blei\-~ * * * *||ben.~|
V:2
 C4 | C8 D8 | E6 F2 G4 A4 | D4 G4 G6 F2 | E2 D2 C4 A,4 =B,4 | C8 z4 D4 | E4 F8 D4 | _E4 D4 C8 | %8
w: Ein|fe- ste|Burg * ist *|un\_- * ser\_~ *||Gott, ein|gu- te *|Wehr und Waf-|
w: Mit~|uns- rer~|Macht~ * ist~ *|nichts~ * ge\_ \-~||tan,~ wir~|sind~ gar~ *|bald~ ver- lo-|
w: Und~|wenn~ die~|Welt~ * voll~ *|Teu- * fel~ *||wär~ und~|wollt~ uns~ *|gar~ ver- schlin-|
w: Das~|Wort~ sie~|sol- * len~ *|las\-~ * sen~ *||stahn~ und~|kein'~ Dank~ *|da- zu~ ha-|
 C8 z4 C4 | C8 D8 | E6 F2 G4 A4 | D4 G4 G6 F2 | E2 D2 C4 A,4 =B,4 | C8 z4 D4 | E4 F8 D4 | %15
w: fen. Er~|hilft uns|frei * aus *|al\_- * ler\_~ *||Not, die|uns jetzt *|
w: ren;~ es~|streit'~ für~|uns~ * der~ *|rech- * te~ *||Mann,~ den~|Gott~ hat~ *|
w: gen,~ so~|fürch- ten~|wir~ * uns~ *|nicht~ * so~ *||sehr,~ es~|soll~ uns~ *|
w: ben;~ er~|ist~ bei~|uns~ * wohl~ *|auf~ * dem~ *||Plan~ mit~|sei- nem~ *|
 _E4 D4 C8 | C8 z4 F4 | F8 E4 D4 | G4 F4 G4 G4 | E8 z4 F4 |[M:8/4] E4 F4 G4 G4 | %21
w: hat be- trof\-~|fen. Der|alt * *|* * bö- se|Feind, mit~|Ernst * ers jetzt|
w: selbst~ er- ko-|ren.~ Fragst~|du,~ * *|* * wer~ der~|ist?~ Er~|heißt~ * Je- sus~|
w: doch~ ge- lin-|gen.~ Der~|Fürst~ * *|* * die- ser~|Welt,~ wie~|sau'r~ * er~ sich~|
w: Geist~ und~ Ga-|ben.~ Neh-|men~ * *|* * sie~ den~|Leib,~ Gut,~|Ehr,~ * Kind~ und~|
 G2 F2 E2 D2 C4 A,2 B,2 | C2 A,2 D8 C4 | D8 G,4 G4- | G4 G4 E4 G4 | F8 z4 D4 | E4 F8 E2 D2 | %27
w: meint; * * * * * *||* * groß~|* Macht und viel|List sein|grau- * * *|
w: Christ,~ * * * * * *||* * der~|* Herr~ Ze- ba-|oth,~ und~|ist~ * * *|
w: stellt,~ * * * * * *||* * tut~|* er~ uns~ doch~|nicht;~ das~|macht,~ * * *|
w: Weib:~ * * * * * *||* * lass~|* fah- ren~ da-|hin,~ sie~|ha- * * *|
 C4 F6 E2 D4 | C8 z4 G4 | E6 F2 G4 F2 E2 | D4 C4 C8 | C16 |] %32
w: sam Rü- * stung~|ist; auf|Erd * * ist *|nicht seins Glei-|chen.~|
w: kein~ and- * rer~|Gott,~ das~|Feld~ * * muss~ *|er~ be- hal-|ten.~|
w: er~ ist~ * ge-|richt':~ ein~|Wört- * * lein~ *|kann~ ihn~ fäl-|len.~|
w: ben's~ kein'~ * Ge-|winn,~ das~|Reich~ * * muss~ *|uns~ doch~ blei-|ben.~|
V:3
 F4 | F8 F8 | C8 D4 F4- | F4 E4 D8 | C8 z4 F4 | E8 D8 | C8 D4 B,4- | B,4 A,4 G,8 | F,8 z4 F4 | %9
w: Ein|fe- ste|Burg ist un\_-|* * ser|Gott, ein~|gu- te-|Wehr und Waf\_-||fen. Er~|
w: Mit~|uns- rer~|Macht~ ist~ nichts~|* * ge-|tan,~ wir~|sind~ gar~|bald~ ver- lo-||ren;~ es~|
w: Und~|wenn~ die~|Welt~ voll~ Teu-|* * fel~|wär~ und~|wollt~ uns~|gar~ ver- schlin-||gen,~ so~|
w: Das~|Wort~ sie~|sol- len~ las-|* * sen~|stahn~ und~|kein'~ Dank~|da- zu~ ha-||ben;~ er~|
 F8 F8 | C8 D4 F4- | F4 E4 D8 | C8 z4 F4 | E8 D8 | C8 D4 B,4- | B,4 A,4 G,8 | F,8 z4 F,4 | %17
w: hilft uns|frei aus al\_-|* * ler|Not, die~|uns jetzt|hat be- trof\_|\-~ * *|fen. Der|
w: streit'~ für~|uns~ der~ rech-|* * te~|Mann,~ den~|Gott~ hat~|selbst~ er- ko-||ren.~ Fragst~|
w: fürch- ten~|wir~ uns~ nicht~|* * so~|sehr,~ es~|soll~ uns~|doch~ ge- lin-||gen.~ Der~|
w: ist~ bei~|uns~ wohl~ auf~|* * dem~|Plan~ mit~|sei- nem~|Geist~ und~ Ga-||ben.~ Neh-|
 A,6 B,2 C4 D4- | D2 C2 C8 B,4 | C8 F,8 |[M:8/4] C8 D8 | E8 F8- | F8 E8 | F8 E8 | D8 C8 | D8 D8 | %26
w: alt * * bö\_-|* * se *|Feind, mit~|Ernst ers|jetzt meint;|* groß|Macht und~|viel List|sein grau-|
w: du,~ * * wer~|* * der~ *|ist?~ Er~|heißt~ Je-|sus~ Christ,~|* der~|Herr~ Ze-|ba- oth,~|und~ ist~|
w: Fürst~ * * die-|* * ser~ *|Welt,~ wie~|sau'r~ er~|sich~ stellt,~|* tut~|er~ uns~|doch~ nicht;~|das~ macht,~|
w: men~ * * sie~|* * den~ *|Leib,~ Gut,~|Ehr,~ Kind~|und~ Weib:~|* lass~|fah- ren~|da- hin,~|sie~ ha-|
 C4 D8 C4 | A,8 z4 F4 | E8 D8 | C8 D4 B,4- | B,4 A,4 G,4- G,4 | F,16 |] %32
w: sam- Rü- stung|ist; auf~|Erd ist|nicht seins Glei-||chen.~|
w: kein~ and- rer~|Gott,~ das~|Feld~ muss~|er~ be- hal-||ten.~|
w: er~ ist~ ge-|richt':~ ein~|Wört- lein~|kann~ ihn~ fäl-||len.~|
w: ben's~ kein'~ Ge-|winn,~ das~|Reich~ muss~|uns~ doch~ blei-||ben.~|
V:4
 F,4 | F,8 D,8 | A,8 G,4 F,4 | B,4 C4 G,4 G,4 | C,4 F,4 F,4 D,4 | %5
w: Ein|fe- ste|Burg ist *|un\_- * * ser|Gott, ein gu- te~|
w: Mit~|uns- rer~|Macht~ ist ~|nichts~ * * ge-|tan,~ wir~ sind~ gar~|
w: Und~|wenn~ die~|Welt~ voll~ *|Teu\_- * * fel~|wär~ und~ wollt~ uns~|
w: Das~|Wort~ sie~|sol- len~ *|las- * * sen~|stahn~ und~ kein'~ Dank~|
"^c-" C,2 D,2 E,2 F,2 G,2 A,2 B,4 | A,2 G,2 F,2 E,2 D,4 G,4 | _E,4 F,4 C,8 | F,8 z4 F,4 | F,8 D,8 | %10
w: Wehr * * * * * *|und * * * * Waf\_-||fen. Er~|hilft uns|
w: bald~ * * * * * *|ver- * * * * lo-||ren;~ es~|streit'~ für~|
w: gar~ * * * * * *|ver- * * * * schlin-||gen,~ so~|fürch- ten~|
w: da- * * * * * *|zu~ * * * * ha-||ben;~ er~|ist~ bei~|
 A,8 G,4 F,4 | B,4 C4 G,4 G,4 | C,4 F,4 F,4 D,4 |"^c-" C,2 D,2 E,2 F,2 G,2 A,2 B,4 | %14
w: frei aus *|al\_- * * ler|Not, die uns jetzt~|hat~ * * * * * *|
w: uns~ der~ *|rech- * * te~|Mann,~ den~ Gott~ hat~|selbst~ * * * * * *|
w: wir~ uns~ *|nicht~ * * so~|sehr,~ es~ soll~ uns~|doch~ * * * * * *|
w: uns~ wohl~ *|auf~ * * dem~|Plan~ mit~ sei- nem~|Geist~ * * * * * *|
 A,2 G,2 F,2 E,2 D,4 G,4 | _E,4 F,4 C,8 | F,8 z4 F,4 | F,6 G,2 A,4 B,4 | G,4 A,4 G,4 G,4 | %19
w: be- * * * * trof-||fen. Der|alt * * *|* * bö- se|
w: er- * * * * ko-||ren.~ Fragst~|du,~ * * *|* * wer~ der~|
w: ge- * * * * lin-||gen.~ Der~|Fürst~ * * *|* * die- ser~|
w: und~ * * * * Ga-||ben.~ Neh-|men~ * * *|* * sie~ den~|
 C,8 z4 C4- |[M:8/4] C2 B,2 A,4 G,8 | C,4 C,4 F,8- | F,4 D,4 A,6 G,2 | F,4 D,4 E,4 C,4 | %24
w: Feind, mit~|* * * Ernst|ers jetzt meint;||* groß Macht\_~ *|
w: ist?~ Er~|* * * heißt~|Je- sus~ Christ,~||* der~ Herr~ *|
w: Welt,~ wie~|* * * sau'r~|er~ sich~ stellt,~||* tut~ er~ *|
w: Leib,~ Gut,~|* * * Ehr,~|Kind~ und~ Weib:~||* lass~ fah\-~ *|
 G,4 G,4 C,8 | z4 F,4 G,4 B,4 | A,4 F,4 D,4 E,4 | F,6 E,2 D,4 B,,4 | C,2 D,2 E,2 F,2 G,4 G,,4 | %29
w: und viel List|sein grau- sam|Rü- * * stung|ist; * * auf~|Erd * * * * ist|
w: Ze- ba- oth,~|und~ ist~ kein~|and- * * rer~|Gott,~ * * das~|Feld~ * * * * muss~|
w: uns~ doch~ nicht;~|das~ macht,~ er~|ist~ * * ge-|richt':~ * * ein~|Wört- * * * * lein~|
w: ren~ da- hin,~|sie~ ha- ben's~|kein'~ * * Ge-|winn,~ * * das~|Reich~ * * * * muss~|
"^http://www2.cpdl.org/wiki/index.php/Ein_feste_Burg_(Johann_Walter)" A,,4 C,4 G,,2 A,,2 B,,2 C,2 | %30
w: nicht seins Glei- * * *|
w: er~ be- hal- * * *|
w: kann~ ihn~ fäl- * * *|
w: uns~ doch~ blei- * * *|
 D,2 E,2 F,4 C,8 | F,,16 |] %32
w: |chen.~|
w: |ten.~|
w: |len.~|
w: |ben.~|

